X:35
T:UNALOCK- An Irish Air (Una's Lock)
S:SMM #477
Q:1/4=120
L:1/8
M:6/8
K:Dm
F|F2FF2G|F3E2E|D2DE2F|G2FE2A|A2GF2E|D3D2^c|d2AA2G|\
F2ED2^c|d3A2^c|d3A2^c|d2fe2d|=c2=BA2B|c3G2=B|c3G2=B|\
c2_ed2c|_B2AG2d|d2^cd2=B|c2=Bc2A|d2fe2d|\
c2BA2G|F2FF3/2G/F|E2EE2^c|d2AA2G|F2ED2|]

